X:61
T:Tammerkoski
M:4/4
L:1/4
Q:1/4=240
S:(The falls/rapids powering the textile mills of Tampere)
R:humppa
K:Gm
"D7" d e2 d/2e/2 | d c B A | "Gm" G B2 A/2B/2 | "F7" A G F E |
"D7" D A2 B | d c B A | "Gm" G G z .^F | "Gm" .G G,/2A,/2B,/2=B,/2C/2^C/2 | !
P:Laulu
"Gm" D4 | G2 A2 | B4 | A2 G2 |
"D7" ^F4 | G2 A2 | (D4 | D3) z |
D4 | A2 B2 | c4 | B2 A2 |
"Gm" B4 | !
"Cm" c2 e2 | "Gm" (d4 | d) G "G7" A =B |
"Cm" c4 | e2 c2 | "Gm" d4 | G4 |
"Cm" c4 | "D7" A2 ^F2 | "Gm" B4 | (3g_gf (3=e_ed | !
"Cm" c4 | F2 E2 | "Gm" D4 | G2 B2 |
"D7" d4 | A2 B2 | "Gm" (G4 |
[1 "to Verse" G) z z D |[2 "Fine" G) z [gdB] z || !
P:Verse
|: "Gm" G z z D | z G2 A | B z z G | z B2 c |
"D7" d z z c | B z A z |[1 "Gm" G G2 F | "D" D ^C/2D/2 E/2=E/2F/2^F/2 :| !
[2 "Gm" G G z D | G z (3c_cB ||
"F7" [AF] z z B | c d2 c  | "Cm" B G2 A |
"Bb" B2 G/2A/2B/2=B/2 | "F7" c z z c | !
f z e z | "Bb" d d2 "Bbm" ^c |
"D7" [dD] E =E ^F | A z z B | c z B A | "Gm" G z z A | !
B z A G | "D7" ^F z z G | A B2 A | "Gm" A G "D7" z .^F |
"Gm" .G "(D.Laulu al Fine)" G,/2A,/2 B,/2=B,/2C/2^C/2 ||
